X: 1123
T: Amy's Favourite
R: reel
M: 4/4
K: Gmajor
B~G3 cBAc|B~G3 EGDE|~G3A BGBd|egde ~g3 a|
b~g3 egde|gedB BAGE|D~G3 AGAB|cAFA ~G3 A:|
Bd~d2 gd~d2|egdB ~G3 A|BGBd e~g3|gedB A2GA|
BGBd e~g3|gede ~g3 a|bgag gedB|AGAB ~G3 A|
Bd~d2 gd~d2|egdB ~G3 A|BGBd e~g3|gaag a2d'2|
~g3a bgag|egdB BAGE|D~G3 AGAB|cAFA ~G3 A:|

